documentation/public/assets/images/button.svg

<svg width="100" height="40" viewBox="0 0 100 40" fill="none" xmlns="http://www.w3.org/2000/svg">
<rect width="100" height="40" rx="4" fill="#0F67F5"/>
<path d="M25.2493 26V14.3636H29.7038C30.5447 14.3636 31.2436 14.4962 31.8004 14.7614C32.361 15.0227 32.7796 15.3807 33.0561 15.8352C33.3364 16.2898 33.4766 16.8049 33.4766 17.3807C33.4766 17.8542 33.3857 18.2595 33.2038 18.5966C33.022 18.9299 32.7777 19.2008 32.4709 19.4091C32.1641 19.6174 31.8213 19.767 31.4425 19.858V19.9716C31.8554 19.9943 32.2512 20.1212 32.63 20.3523C33.0125 20.5795 33.325 20.9015 33.5675 21.3182C33.8099 21.7348 33.9311 22.2386 33.9311 22.8295C33.9311 23.4318 33.7853 23.9735 33.4936 24.4545C33.2019 24.9318 32.7625 25.3087 32.1754 25.5852C31.5883 25.8617 30.8497 26 29.9595 26H25.2493ZM27.3572 24.2386H29.6243C30.3894 24.2386 30.9406 24.0928 31.2777 23.8011C31.6186 23.5057 31.7891 23.1269 31.7891 22.6648C31.7891 22.3201 31.7038 22.0095 31.5334 21.733C31.3629 21.4527 31.1205 21.233 30.8061 21.0739C30.4917 20.911 30.1167 20.8295 29.6811 20.8295H27.3572V24.2386ZM27.3572 19.3125H29.4425C29.8061 19.3125 30.1338 19.2462 30.4254 19.1136C30.7171 18.9773 30.9463 18.786 31.1129 18.5398C31.2834 18.2898 31.3686 17.9943 31.3686 17.6534C31.3686 17.2027 31.2095 16.8314 30.8913 16.5398C30.5769 16.2481 30.1091 16.1023 29.4879 16.1023H27.3572V19.3125ZM41.2365 22.3295V17.2727H43.2933V26H41.299V24.4489H41.2081C41.0111 24.9375 40.6873 25.3371 40.2365 25.6477C39.7895 25.9583 39.2384 26.1136 38.5831 26.1136C38.0111 26.1136 37.5054 25.9867 37.0661 25.733C36.6304 25.4754 36.2895 25.1023 36.0433 24.6136C35.7971 24.1212 35.674 23.5265 35.674 22.8295V17.2727H37.7308V22.5114C37.7308 23.0644 37.8823 23.5038 38.1854 23.8295C38.4884 24.1553 38.8861 24.3182 39.3786 24.3182C39.6816 24.3182 39.9751 24.2443 40.2592 24.0966C40.5433 23.9489 40.7763 23.7292 40.9581 23.4375C41.1437 23.142 41.2365 22.7727 41.2365 22.3295ZM49.7663 17.2727V18.8636H44.7493V17.2727H49.7663ZM45.9879 15.1818H48.0447V23.375C48.0447 23.6515 48.0864 23.8636 48.1697 24.0114C48.2569 24.1553 48.3705 24.2538 48.5107 24.3068C48.6508 24.3598 48.8061 24.3864 48.9766 24.3864C49.1054 24.3864 49.2228 24.3769 49.3288 24.358C49.4387 24.339 49.522 24.322 49.5788 24.3068L49.9254 25.9148C49.8156 25.9527 49.6584 25.9943 49.4538 26.0398C49.2531 26.0852 49.0069 26.1117 48.7152 26.1193C48.2 26.1345 47.736 26.0568 47.3232 25.8864C46.9103 25.7121 46.5826 25.4432 46.3402 25.0795C46.1016 24.7159 45.9841 24.2614 45.9879 23.7159V15.1818ZM55.8445 17.2727V18.8636H50.8274V17.2727H55.8445ZM52.0661 15.1818H54.1229V23.375C54.1229 23.6515 54.1645 23.8636 54.2479 24.0114C54.335 24.1553 54.4486 24.2538 54.5888 24.3068C54.7289 24.3598 54.8842 24.3864 55.0547 24.3864C55.1835 24.3864 55.3009 24.3769 55.407 24.358C55.5168 24.339 55.6001 24.322 55.657 24.3068L56.0036 25.9148C55.8937 25.9527 55.7365 25.9943 55.532 26.0398C55.3312 26.0852 55.085 26.1117 54.7933 26.1193C54.2782 26.1345 53.8142 26.0568 53.4013 25.8864C52.9884 25.7121 52.6607 25.4432 52.4183 25.0795C52.1797 24.7159 52.0623 24.2614 52.0661 23.7159V15.1818ZM61.2777 26.1705C60.4254 26.1705 59.6868 25.983 59.0618 25.608C58.4368 25.233 57.9519 24.7083 57.6072 24.0341C57.2663 23.3598 57.0959 22.572 57.0959 21.6705C57.0959 20.7689 57.2663 19.9792 57.6072 19.3011C57.9519 18.6231 58.4368 18.0966 59.0618 17.7216C59.6868 17.3466 60.4254 17.1591 61.2777 17.1591C62.13 17.1591 62.8686 17.3466 63.4936 17.7216C64.1186 18.0966 64.6016 18.6231 64.9425 19.3011C65.2872 19.9792 65.4595 20.7689 65.4595 21.6705C65.4595 22.572 65.2872 23.3598 64.9425 24.0341C64.6016 24.7083 64.1186 25.233 63.4936 25.608C62.8686 25.983 62.13 26.1705 61.2777 26.1705ZM61.2891 24.5227C61.7512 24.5227 62.1375 24.3958 62.4482 24.142C62.7588 23.8845 62.9898 23.5398 63.1413 23.108C63.2966 22.6761 63.3743 22.1951 63.3743 21.6648C63.3743 21.1307 63.2966 20.6477 63.1413 20.2159C62.9898 19.7803 62.7588 19.4337 62.4482 19.1761C62.1375 18.9186 61.7512 18.7898 61.2891 18.7898C60.8156 18.7898 60.4216 18.9186 60.1072 19.1761C59.7966 19.4337 59.5637 19.7803 59.4084 20.2159C59.2569 20.6477 59.1811 21.1307 59.1811 21.6648C59.1811 22.1951 59.2569 22.6761 59.4084 23.108C59.5637 23.5398 59.7966 23.8845 60.1072 24.142C60.4216 24.3958 60.8156 24.5227 61.2891 24.5227ZM69.2621 20.8864V26H67.2053V17.2727H69.1712V18.7557H69.2734C69.4742 18.267 69.7943 17.8788 70.2337 17.5909C70.6768 17.303 71.2242 17.1591 71.8757 17.1591C72.478 17.1591 73.0026 17.2879 73.4496 17.5455C73.9003 17.803 74.2488 18.1761 74.495 18.6648C74.745 19.1534 74.8681 19.7462 74.8643 20.4432V26H72.8075V20.7614C72.8075 20.178 72.656 19.7216 72.353 19.392C72.0537 19.0625 71.639 18.8977 71.1087 18.8977C70.7488 18.8977 70.4287 18.9773 70.1484 19.1364C69.8719 19.2917 69.6541 19.517 69.495 19.8125C69.3397 20.108 69.2621 20.4659 69.2621 20.8864Z" fill="white"/>
</svg>

<svg width="100" height="40" fill="none" xmlns="http://www.w3.org/2000/svg"><rect width="100" height="40" rx="4" fill="#0F67F5"/><path d="M25.25 26V14.36h4.45c.84 0 1.54.14 2.1.4a2.8 2.8 0 0 1 1.68 2.62 2.3 2.3 0 0 1-1 2.03c-.32.2-.66.36-1.04.45v.11a2.64 2.64 0 0 1 2.13 1.35c.24.41.36.92.36 1.5a3 3 0 0 1-.44 1.63 3 3 0 0 1-1.31 1.14 5.2 5.2 0 0 1-2.22.41h-4.71Zm2.1-1.76h2.27c.77 0 1.32-.15 1.66-.44.34-.3.5-.67.5-1.14a1.74 1.74 0 0 0-.97-1.59 2.42 2.42 0 0 0-1.13-.24h-2.32v3.4Zm0-4.93h2.1c.36 0 .68-.06.98-.2a1.53 1.53 0 0 0 .94-1.46c0-.45-.16-.82-.48-1.11-.31-.3-.78-.44-1.4-.44h-2.13v3.21Zm13.89 3.02v-5.06h2.05V26h-2v-1.55h-.08c-.2.49-.52.89-.97 1.2-.45.3-1 .46-1.66.46a2.65 2.65 0 0 1-2.54-1.5 3.95 3.95 0 0 1-.37-1.78v-5.56h2.06v5.24c0 .55.15 1 .46 1.32.3.33.7.49 1.19.49a1.89 1.89 0 0 0 1.58-.88c.18-.3.28-.67.28-1.11Zm8.53-5.06v1.6h-5.02v-1.6h5.02Zm-3.78-2.09h2.05v8.2c0 .27.05.48.13.63.09.15.2.24.34.3.14.05.3.08.47.08a2.01 2.01 0 0 0 .6-.08l.35 1.6a4.59 4.59 0 0 1-1.21.2c-.52.02-.98-.05-1.4-.22a2.17 2.17 0 0 1-.98-.81 2.4 2.4 0 0 1-.35-1.36v-8.54Zm9.85 2.1v1.58h-5.01v-1.59h5.01Zm-3.77-2.1h2.05v8.2c0 .27.04.48.13.63.09.15.2.24.34.3.14.05.3.08.46.08a2.02 2.02 0 0 0 .6-.08l.35 1.6a4.6 4.6 0 0 1-1.2.2 3.3 3.3 0 0 1-1.4-.22 2.17 2.17 0 0 1-.98-.81 2.4 2.4 0 0 1-.35-1.36v-8.54Zm9.2 11c-.84 0-1.58-.2-2.2-.57a3.82 3.82 0 0 1-1.46-1.58 5.17 5.17 0 0 1-.51-2.36c0-.9.17-1.7.5-2.37.35-.68.84-1.2 1.46-1.58a4.23 4.23 0 0 1 2.22-.56c.85 0 1.59.19 2.21.56.63.38 1.11.9 1.45 1.58.35.68.52 1.47.52 2.37 0 .9-.17 1.69-.52 2.36-.34.68-.82 1.2-1.45 1.58-.62.37-1.36.56-2.21.56Zm.02-1.66c.46 0 .85-.12 1.16-.38.3-.26.54-.6.7-1.03.15-.43.22-.91.22-1.45a4.1 4.1 0 0 0-.23-1.44 2.3 2.3 0 0 0-.7-1.04 1.7 1.7 0 0 0-1.15-.39c-.47 0-.87.13-1.18.39-.31.25-.55.6-.7 1.04-.15.43-.23.91-.23 1.44 0 .54.08 1.02.23 1.45.15.43.39.77.7 1.03.31.26.7.38 1.18.38Zm7.97-3.63V26h-2.05v-8.73h1.96v1.49h.1c.2-.5.52-.88.96-1.17.45-.29 1-.43 1.65-.43.6 0 1.12.13 1.57.39.45.25.8.63 1.05 1.11.25.5.37 1.09.36 1.78V26h-2.05v-5.24c0-.58-.15-1.04-.46-1.37a1.6 1.6 0 0 0-1.24-.5c-.36 0-.68.09-.96.25-.28.15-.5.38-.66.67-.15.3-.23.66-.23 1.08Z" fill="#fff"/></svg>
